X:1
T:Soldier's Joy
C:Traditional
M:C
L:1/8
N:Play AABB
K:D
|:"D""^Part A"AF DF Ad d2|AF DF "A7"GF E2|"D"AF DF Ad d2|"D"ff "A7"ee "D"df d2:|
|:"D""^Part B"fg af "A"e1/2f1/2e1/2f1/2 g2|"D"fg af "A"ec A2
|"D"fg af "A7"e1/2f1/2e1/2f1/2 g2|"D"ff "A7"e1/2f1/2e "D"df d2:||

